X:271
T: Gao shan diao
N: C0446
O: China,Taiwan, Xinzhu
S: IV, 627]
N: von Ke ren in Taiwan.
N: Wenig Verzierungen, Glissandi. Druckfehler: T.2 analog zu T.6 ergaenzt.
R: Shange, Kejia shange, Dashan ge]
M: 2/4
L: 1/16
K: A
z4c2c2f2f2c2c2 | f2aba8
c2^e2 | f2abf2c2c6^e2 | (3f2a2c2(3c2a2^e2f8 | c8 |
z4c2f2(3f2a2c2c2c2 | c2a2a8c4
f2abf2c2-c6^e2 | (3f2a2c2(3c2a2^e2f8 | c8

@@@ Tune index: 6272
